X: 1
T: No_10_Song_of_Ouwe_Dance.krn
N: Derived from No_10_Song_of_Ouwe_Dance.krn
%%abc-version 2.0
%%abcx-abcm2ps-target-version 5.9.1 (29 Sep 2008)
%%abc-creator hum2abc beta
%%abcx-conversion-date 2019/03/15 08:25:35
%%humdrum-veritas 3477508237
%%humdrum-veritas-data 2621316408
%%linebreak <none>
%%barnumbers 0
L: 1/8
M: 2/4
K: C clef=bass
[K:clef=bass][M:2/4](C/G,3/) G,G, | 
E2E2 | 
D2(CG,) | 
[M:3/4]C2C2C z | 
[M:2/4]C2CC | 
E2E2 | 
D2(CG,) | 
(C2G,2) | 
[M:3/4]G,2G,2G, z | 
[M:2/4](CG,) G,G, | 
[M:3/4]C2DD (3C(CG,) | 
[M:2/4]C2(CG,) | 
[M:3/4]G,G,G,2G, z | 
G,2G,G, G,G, | 
C2DD (3C(CG,) | 
[M:2/4]C2(CG,) | 
[M:3/4]G,G,G,2A, z | 
[M:2/4]G,2G,G, | 
z G, G, z | 
G,2G,G, |]  



